frontend/src/assets/icons/android-icon.svg

<?xml version="1.0" encoding="UTF-8"?>
<svg xmlns="http://www.w3.org/2000/svg" xmlns:xlink="http://www.w3.org/1999/xlink" width="128pt" height="128pt" viewBox="0 0 128 128" version="1.1">
<g id="surface1">
<path style=" stroke:none;fill-rule:nonzero;fill:rgb(100%,100%,100%);fill-opacity:1;" d="M 21.011719 91.125 C 15.472656 91.128906 10.972656 86.621094 10.972656 81.085938 L 10.972656 50.347656 C 10.96875 44.8125 15.46875 40.308594 21 40.308594 C 23.6875 40.304688 26.207031 41.347656 28.105469 43.246094 C 30.003906 45.140625 31.046875 47.664062 31.046875 50.34375 L 31.046875 81.085938 C 31.050781 83.761719 30.011719 86.28125 28.113281 88.179688 C 26.222656 90.078125 23.695312 91.125 21.011719 91.125 M 21.003906 43.003906 C 16.949219 43.003906 13.664062 46.296875 13.664062 50.347656 L 13.671875 81.082031 C 13.671875 85.144531 16.960938 88.425781 21.011719 88.429688 C 25.066406 88.425781 28.355469 85.144531 28.351562 81.082031 L 28.351562 50.34375 C 28.347656 46.292969 25.058594 43.003906 21.003906 43.003906 "/>
<path style=" stroke:none;fill-rule:nonzero;fill:rgb(100%,100%,100%);fill-opacity:1;" d="M 99.742188 44.527344 L 97.042969 44.527344 L 30.925781 44.535156 L 28.226562 44.535156 L 28.222656 41.835938 C 28.21875 30.757812 34.253906 20.453125 44.140625 14.363281 L 40.296875 7.347656 C 39.828125 6.523438 39.710938 5.484375 39.984375 4.53125 C 40.261719 3.578125 40.917969 2.761719 41.796875 2.292969 C 42.304688 2.003906 42.929688 1.84375 43.554688 1.847656 C 44.917969 1.847656 46.164062 2.585938 46.824219 3.777344 L 50.847656 11.109375 C 55.007812 9.582031 59.402344 8.800781 63.945312 8.804688 C 68.550781 8.800781 72.96875 9.578125 77.148438 11.113281 L 81.164062 3.773438 C 81.8125 2.582031 83.070312 1.839844 84.429688 1.839844 C 85.039062 1.839844 85.652344 1.988281 86.191406 2.277344 C 87.09375 2.773438 87.722656 3.566406 88 4.523438 C 88.277344 5.476562 88.164062 6.484375 87.683594 7.355469 L 83.839844 14.367188 C 93.710938 20.46875 99.738281 30.765625 99.738281 41.828125 Z M 80.195312 15.402344 L 85.320312 6.046875 C 85.59375 5.558594 85.414062 4.933594 84.921875 4.660156 C 84.417969 4.390625 83.800781 4.574219 83.535156 5.066406 L 78.359375 14.515625 C 74.007812 12.582031 69.132812 11.496094 63.976562 11.5 C 58.835938 11.496094 53.96875 12.578125 49.628906 14.507812 L 44.449219 5.078125 C 44.179688 4.578125 43.558594 4.398438 43.070312 4.671875 C 42.570312 4.9375 42.390625 5.5625 42.664062 6.050781 L 47.789062 15.398438 C 37.722656 20.59375 30.917969 30.484375 30.921875 41.839844 L 97.039062 41.828125 C 97.042969 30.480469 90.253906 20.609375 80.195312 15.402344 M 48.941406 29.859375 C 47.417969 29.855469 46.175781 28.617188 46.175781 27.089844 C 46.175781 25.566406 47.417969 24.316406 48.941406 24.316406 C 50.476562 24.3125 51.714844 25.566406 51.71875 27.089844 C 51.71875 28.617188 50.476562 29.859375 48.941406 29.859375 M 79.046875 29.855469 C 77.519531 29.855469 76.273438 28.617188 76.273438 27.082031 C 76.273438 25.5625 77.515625 24.3125 79.046875 24.304688 C 80.570312 24.308594 81.816406 25.5625 81.816406 27.085938 C 81.816406 28.613281 80.574219 29.855469 79.046875 29.855469 M 51.710938 126.160156 C 46.179688 126.15625 41.675781 121.65625 41.675781 116.121094 L 41.671875 102.554688 L 39.035156 102.558594 C 36.21875 102.558594 33.574219 101.464844 31.585938 99.476562 C 29.597656 97.488281 28.5 94.84375 28.503906 92.023438 L 28.492188 44.394531 L 28.492188 41.695312 L 31.191406 41.695312 L 96.816406 41.683594 L 99.515625 41.683594 L 99.515625 44.382812 L 99.523438 92.015625 C 99.523438 97.824219 94.796875 102.550781 88.988281 102.550781 L 86.335938 102.550781 L 86.339844 116.113281 C 86.339844 121.648438 81.835938 126.152344 76.304688 126.152344 C 73.625 126.160156 71.109375 125.117188 69.207031 123.214844 C 67.308594 121.320312 66.261719 118.800781 66.261719 116.121094 L 66.261719 102.550781 L 61.75 102.550781 L 61.75 116.117188 C 61.746094 121.652344 57.246094 126.160156 51.710938 126.160156 "/>
<path style=" stroke:none;fill-rule:nonzero;fill:rgb(100%,100%,100%);fill-opacity:1;" d="M 31.203125 92.023438 C 31.199219 96.359375 34.703125 99.859375 39.035156 99.859375 L 44.367188 99.859375 L 44.375 116.121094 C 44.375 120.171875 47.664062 123.464844 51.710938 123.464844 C 55.765625 123.464844 59.050781 120.171875 59.046875 116.117188 L 59.050781 99.859375 L 68.957031 99.855469 L 68.957031 116.117188 C 68.960938 120.167969 72.253906 123.464844 76.300781 123.457031 C 80.355469 123.460938 83.644531 120.164062 83.644531 116.113281 L 83.636719 99.851562 L 88.992188 99.851562 C 93.308594 99.851562 96.824219 96.34375 96.824219 92.015625 L 96.8125 44.378906 L 31.191406 44.390625 Z M 106.996094 91.113281 C 101.460938 91.113281 96.957031 86.613281 96.957031 81.074219 L 96.949219 50.339844 C 96.953125 44.800781 101.449219 40.296875 106.980469 40.296875 C 112.519531 40.296875 117.027344 44.800781 117.027344 50.335938 L 117.027344 81.070312 C 117.03125 86.605469 112.53125 91.113281 106.996094 91.113281 M 106.984375 42.996094 C 102.933594 42.992188 99.648438 46.28125 99.648438 50.339844 L 99.652344 81.074219 C 99.652344 85.132812 102.9375 88.417969 106.992188 88.414062 C 111.046875 88.414062 114.328125 85.132812 114.332031 81.070312 L 114.324219 50.335938 C 114.324219 46.28125 111.039062 42.992188 106.984375 42.996094 "/>
<path style=" stroke:none;fill-rule:nonzero;fill:rgb(64.313725%,76.862745%,22.352941%);fill-opacity:1;" d="M 21.003906 43.003906 C 16.949219 43.003906 13.664062 46.296875 13.664062 50.347656 L 13.671875 81.082031 C 13.671875 85.144531 16.957031 88.425781 21.011719 88.425781 C 25.066406 88.425781 28.355469 85.144531 28.351562 81.082031 L 28.351562 50.34375 C 28.347656 46.292969 25.058594 43.003906 21.003906 43.003906 M 80.195312 15.402344 L 85.320312 6.046875 C 85.59375 5.558594 85.414062 4.9375 84.917969 4.660156 C 84.417969 4.394531 83.800781 4.574219 83.535156 5.066406 L 78.359375 14.519531 C 74.007812 12.582031 69.132812 11.496094 63.976562 11.5 C 58.835938 11.496094 53.964844 12.578125 49.628906 14.507812 L 44.449219 5.078125 C 44.179688 4.578125 43.558594 4.398438 43.070312 4.671875 C 42.570312 4.941406 42.390625 5.5625 42.664062 6.050781 L 47.789062 15.398438 C 37.722656 20.59375 30.917969 30.484375 30.921875 41.839844 L 97.039062 41.828125 C 97.042969 30.480469 90.253906 20.609375 80.195312 15.402344 M 48.941406 29.859375 C 47.417969 29.855469 46.175781 28.617188 46.175781 27.089844 C 46.175781 25.566406 47.414062 24.3125 48.941406 24.316406 C 50.476562 24.3125 51.714844 25.566406 51.71875 27.089844 C 51.71875 28.617188 50.476562 29.859375 48.941406 29.859375 M 79.046875 29.855469 C 77.519531 29.855469 76.273438 28.617188 76.273438 27.082031 C 76.28125 25.5625 77.515625 24.3125 79.046875 24.304688 C 80.570312 24.308594 81.816406 25.5625 81.816406 27.085938 C 81.816406 28.613281 80.574219 29.855469 79.046875 29.855469 M 31.191406 44.390625 L 31.203125 92.027344 C 31.199219 96.359375 34.707031 99.859375 39.035156 99.859375 L 44.367188 99.859375 L 44.375 116.125 C 44.375 120.175781 47.664062 123.464844 51.710938 123.464844 C 55.765625 123.464844 59.050781 120.171875 59.054688 116.117188 L 59.050781 99.859375 L 68.957031 99.855469 L 68.960938 116.117188 C 68.960938 120.164062 72.253906 123.464844 76.300781 123.457031 C 80.355469 123.460938 83.644531 120.164062 83.644531 116.113281 L 83.636719 99.855469 L 88.988281 99.851562 C 93.308594 99.851562 96.824219 96.351562 96.824219 92.015625 L 96.816406 44.382812 Z M 114.328125 50.335938 C 114.324219 46.28125 111.039062 42.992188 106.984375 42.996094 C 102.933594 42.992188 99.648438 46.28125 99.648438 50.339844 L 99.65625 81.074219 C 99.652344 85.132812 102.9375 88.414062 106.992188 88.414062 C 111.046875 88.414062 114.332031 85.132812 114.332031 81.070312 Z M 114.328125 50.335938 "/>
</g>
</svg>

<svg xmlns="http://www.w3.org/2000/svg" viewBox="0 0 128 128"><path fill="#fff" d="M21.012 91.125c-5.538.003-10.038-4.503-10.039-10.04l-.002-30.739c-.002-5.532 4.497-10.037 10.028-10.038 2.689-.002 5.207 1.041 7.105 2.937s2.942 4.418 2.944 7.099l-.003 30.74c.007 2.679-1.034 5.199-2.931 7.094-1.892 1.9-4.417 2.946-7.102 2.947M21.004 43.005c-4.053-.002-7.338 3.291-7.339 7.341l.005 30.736c.001 4.064 3.292 7.344 7.341 7.348 4.057-.005 7.343-3.285 7.339-7.347v-30.741c-.002-4.049-3.291-7.339-7.346-7.337"/><path fill="#fff" d="M99.742 44.527l-2.698-.001-66.119.009-2.699.001-.002-2.699c-.006-11.08 6.03-21.385 15.917-27.473l-3.844-7.017c-.47-.822-.588-1.863-.314-2.815.278-.952.935-1.771 1.814-2.239.509-.288 1.131-.448 1.759-.447 1.362 0 2.609.739 3.267 1.933l4.023 7.329c4.163-1.527 8.558-2.306 13.099-2.305 4.606-.002 9.023.777 13.204 2.311l4.017-7.341c.647-1.191 1.903-1.933 3.263-1.932.612-.001 1.223.148 1.761.438.903.495 1.533 1.286 1.81 2.245.276.953.165 1.959-.318 2.832l-3.842 7.013c9.871 6.101 15.9 16.398 15.899 27.459l.003 2.699zM80.196 15.403l5.123-9.355c.273-.489.095-1.115-.399-1.386-.501-.271-1.119-.086-1.384.405l-5.176 9.45c-4.354-1.934-9.229-3.021-14.382-3.016-5.142-.005-10.008 1.078-14.349 3.005l-5.181-9.429c-.267-.497-.891-.679-1.379-.405-.497.266-.68.891-.403 1.379l5.125 9.348c-10.07 5.194-16.874 15.084-16.868 26.439l66.118-.008c.003-11.351-6.789-21.221-16.845-26.427m-31.256 14.457c-1.521-.003-2.763-1.241-2.763-2.771 0-1.523 1.24-2.774 2.766-2.774 1.533-.001 2.773 1.251 2.775 2.774.001 1.528-1.242 2.77-2.778 2.771m30.107-.006c-1.528.002-2.775-1.235-2.772-2.771 0-1.521 1.242-2.772 2.773-2.778 1.521.005 2.768 1.258 2.767 2.779 0 1.531-1.241 2.771-2.768 2.77M51.711 126.159c-5.533-.001-10.036-4.501-10.037-10.038l-.002-13.567-2.638.003c-2.817.001-5.461-1.094-7.448-3.082-1.99-1.986-3.087-4.633-3.083-7.452l-.01-47.627v-2.701h2.699l65.623-.01 2.7-.002v2.699l.007 47.633c.001 5.809-4.725 10.536-10.532 10.535l-2.654.002.003 13.562c0 5.534-4.502 10.039-10.033 10.039-2.681.006-5.197-1.036-7.098-2.937-1.901-1.896-2.948-4.416-2.947-7.096v-13.568h-4.511v13.565c-.002 5.535-4.503 10.043-10.039 10.042"/><path fill="#fff" d="M31.205 92.022c-.004 4.337 3.497 7.838 7.831 7.837h5.333l.006 16.264c-.001 4.05 3.289 7.341 7.335 7.342 4.056 0 7.342-3.295 7.338-7.348l.001-16.259 9.909-.003-.001 16.263c.004 4.051 3.298 7.346 7.343 7.338 4.056.003 7.344-3.292 7.343-7.344l-.005-16.259 5.353-.001c4.319.001 7.832-3.508 7.832-7.837l-.009-47.635-65.621.012.012 47.63zM106.996 91.112c-5.536.001-10.039-4.498-10.038-10.036l-.008-30.738c.002-5.537 4.498-10.041 10.031-10.041 5.54-.001 10.046 4.502 10.045 10.038l.003 30.736c.001 5.534-4.498 10.042-10.033 10.041M106.986 42.996c-4.053-.004-7.337 3.287-7.337 7.342l.003 30.737c.002 4.059 3.286 7.343 7.342 7.34 4.054-.001 7.335-3.281 7.338-7.343l-.008-30.736c-.001-4.056-3.283-7.342-7.338-7.34"/><path fill="#A4C439" d="M21.004 43.005c-4.053-.002-7.338 3.291-7.339 7.341l.005 30.736c.001 4.064 3.288 7.344 7.342 7.343 4.056 0 7.342-3.28 7.338-7.342v-30.741c-.002-4.049-3.291-7.339-7.346-7.337m59.192-27.602l5.123-9.355c.273-.489.094-1.111-.401-1.388-.5-.265-1.117-.085-1.382.407l-5.175 9.453c-4.354-1.938-9.227-3.024-14.383-3.019-5.142-.005-10.013 1.078-14.349 3.005l-5.181-9.429c-.269-.497-.889-.677-1.378-.406-.498.269-.681.892-.404 1.38l5.125 9.349c-10.07 5.193-16.874 15.083-16.868 26.438l66.118-.008c.003-11.351-6.789-21.221-16.845-26.427m-31.256 14.457c-1.521-.003-2.763-1.241-2.763-2.771 0-1.523 1.238-2.775 2.766-2.774 1.533-.001 2.773 1.251 2.775 2.774.001 1.528-1.242 2.77-2.778 2.771m30.107-.006c-1.528.002-2.772-1.237-2.772-2.771.006-1.52 1.242-2.772 2.773-2.778 1.521.005 2.768 1.258 2.767 2.779.002 1.531-1.241 2.771-2.768 2.77m-47.854 14.538l.011 47.635c-.003 4.333 3.502 7.831 7.832 7.831l5.333.002.006 16.264c-.001 4.05 3.291 7.342 7.335 7.342 4.056 0 7.342-3.295 7.343-7.347l-.004-16.26 9.909-.003.004 16.263c0 4.047 3.293 7.346 7.338 7.338 4.056.003 7.344-3.292 7.343-7.344l-.005-16.259 5.352-.004c4.32.002 7.834-3.5 7.836-7.834l-.009-47.635-65.624.011zm83.134 5.943c-.001-4.055-3.286-7.341-7.341-7.339-4.053-.004-7.337 3.287-7.337 7.342l.006 30.738c-.001 4.058 3.283 7.338 7.339 7.339 4.054-.001 7.337-3.281 7.338-7.343l-.005-30.737z"/></svg>
